X: 1
T: 'Tis Midnight and On Olive's Brow
C: Words: William Bingham Tappan, 1822.
C: Music: 'St. Cross' John Bacchus Dykes, 1861. Setting: "Hymns Ancient and Modern", 1869.
C: copyright: public domain.  This score is a part of the Open Hymnal Project, 2011 Revision.
S: Music source:  "Hymns Ancient and Modern", 1869 Hymn 100, composed for this hymnal.  Can find the text in Gems of sacred poetry By William Bingham Tappan, 1860 edition
M: 4/4 % time signature
L: 1/4 % default length
%%staves (S1V1 S1V2) | (S2V1 S2V2) 
V: S1V1 clef=treble 
%%MIDI beat 127 125 110 1
V: S1V2 
%%MIDI beat 127 125 110 1
V: S2V1 clef=bass 
%%MIDI beat 127 125 110 1
V: S2V2 
%%MIDI beat 127 125 110 1
K: F % key signature
%
%%MIDI program 1 0 % Piano 1
%%MIDI program 2 0 % Piano 1
%%MIDI program 3 0 % Piano 1
%%MIDI program 4 0 % Piano 1
%
% 1
[V: S1V1] [Q:1/4=140] F2 F G | A3 d | c2 B2 | A4 | A2 A B |
w: 1.~'Tis mid- night, and on Ol- ive's brow The star is 
w: 2.~'Tis mid- night, and from all re- moved Im- man- uel 
w: 3.~'Tis mid- night, from the heav'n- ly plains Are borne the 
[V: S1V2] D2 D E | F3 F | (F C) (D E) | F4 | F2 E D |
[V: S2V1] A,2 A, C | C3 B, | A,3 G, | A,4 | F,2 F, F, |
[V: S2V2] D,2 D, C, | F,3 B,, | C,2 C,2 | F,4 | D,2 C, B,, |
% 1
[V: S1V1] c2 F2 | A2 G2 | F3 A | F3 A | G2 A2 |
w: dimmed that late- ly shone; 'Tis mid- night, in the 
w: wres- tles, lone, with fears; E'en the dis- ci- ple 
w: songs that an- gels know; Un- heard by mor- tals 
[V: S1V2] C2 F2 | F2 E2 | F3 C | C3 D | D2 ^C2 |
[V: S2V1] (F, G,) (A, B,) | C3 B, | A,3 A, | A,3 A, | B,2 A,2 |
[V: S2V2] A,,2 D,2 | C,2 C,2 | F,3 F, | F,3 F, | E,2 A,,2 |
% 1
[V: S1V1] F2 G2 | E4 | !sintro!D2 D D |  A3 G | F2 ^E2 | D4 !eintro!|]
w: gar- den now The suff- 'ring Sa- vior prays a- lone.
w: whom He loved Heeds not his Mas- ter's grief and tears.
w: are the strains That sweet- ly soothe the Sa- vior's woe.
[V: S1V2] D2 (E D) | ^C4 | D2 D D | A3 D | D2 C2 | D4 |]
[V: S2V1] A,2 B,2 | A,4 | D,2 D, D, | A,3 B, | A,2 G,2 | F,4 |]
[V: S2V2] D,2 G,,2 | A,,4 | D,2 D, D, | A,3 G,, | A,,2 A,,2 D,4 |]
